!!!COM: Bach, Johann Sebastian
!!!CDT: 1685/3//-1750/7/28/
!!!OTL@@DE: Herr Gott, dich loben alle wir
!!!AGN: 4-Part Chorale
!!!SCT: BH 164
!!!SCT: BWV 326
!!!YEC: Copyright 2003 by Craig Stuart Sapp
!!!license: GNU General Public License (http://www.gnu.org/copyleft/gpl.html)
!!!SMA: 371 Bach Chorales, edited by Ludwig Erk, C.F. Peters
!!!PDT: 1850, 1865
**kern	**kern	**kern	**kern	**root	**harm
!bass	!tenor	!alto	!soprno	!	!
*Iorgan	*Iorgan	*Iorgan	*Iorgan	*Iorgan	*
*clefF4	*clefF4	*clefG2	*clefG2	*	*
*k[b-e-]	*k[b-e-]	*k[b-e-]	*k[b-e-]	*k[b-e-]	*k[b-e-]
*B-:	*B-:	*B-:	*B-:	*B-:	*B-:
*M3/4	*M3/4	*M3/4	*M3/4	*M3/4	*M3/4
*MM60	*MM60	*MM60	*MM60	*MM60	*MM60
8BB-	4d	4f	4b-	4BB-	I
8AA	.	.	.	.	.
=1	=1	=1	=1	=1	=1
8GG	2d	2g	2b-	2GG	vi
8AA	.	.	.	.	.
8BB-	.	.	.	.	.
8C	.	.	.	.	.
8D	4d	4f	4a	4BB-	I7
8BB-	.	.	.	.	.
=2	=2	=2	=2	=2	=2
8E-	2B-	2e-	2g	2EE-	IV
8F	.	.	.	.	.
8G	.	.	.	.	.
8A	.	.	.	.	.
8B-	4B-	4d	4f	4BB-	I
8A	.	.	.	.	.
=3	=3	=3	=3	=3	=3
8G	2B-	4d	4b-	4GG	vi
8F	.	.	.	.	.
8E-	.	4g	2cc	4CC	V7b/V
8D	.	.	.	.	.
8E-	4A	4f	.	4FF	V7d
8F	.	.	.	.	.
=4	=4	=4	=4	=4	=4
2BB-;	2B-;	2f;	2dd;	2BB-;	I;
4FF#	4A	4a	4dd	4DD	V/VI
=5	=5	=5	=5	=5	=5
8GG	2B-	2g	2dd	2.GG	vi
8D	.	.	.	.	.
8G	.	.	.	.	.
8F	.	.	.	.	.
8E-	4B-	4g	4dd	.	.
8D	.	.	.	.	.
=6	=6	=6	=6	=6	=6
8E-	4B-	4g	2cc	4EE-	IV7
8C	.	.	.	.	.
8F	4A	4f	.	4FF	V
8E-	.	.	.	.	.
8D	4B-	4f	4dd	4BB-	Ib
8C	.	.	.	.	.
=7	=7	=7	=7	=7	=7
8BB-	4c	4f	4ee-	4FF	V7b
8AA	.	.	.	.	.
8BB-	2B-	2f	2dd	2BB-	I
8C	.	.	.	.	.
8D	.	.	.	.	.
8E-	.	.	.	.	.
!!linebreak: 2
=8	=8	=8	=8	=8	=8
2F;	2A;	2f;	2cc;	2FF;	V;
4G	4d	4g	4b-	4GG	vi
=9	=9	=9	=9	=9	=9
8A	2c	2f	2cc	2FF	V
8F	.	.	.	.	.
8G	.	.	.	.	.
8A	.	.	.	.	.
8B-	4B-	8f	4dd	4GG	vi7
8G	.	8b-	.	.	.
=10	=10	=10	=10	=10	=10
8E-	4B-	4g	2cc	4CC	ii7
8D	.	.	.	.	.
8E-	4A	8f	.	4FF	V7d
8F	.	8e-	.	.	.
8G	4B-	4d	4b-	4GG	vi
8D	.	.	.	.	.
=11	=11	=11	=11	=11	=11
8E-	8B-	4g	4g	4EE-	IV
8BB-	8d	.	.	.	.
8C	4e-	4g	2a	4AA	vii7D
8AA	.	.	.	.	.
8D	4d	4f#	.	4DD	V/VI
8DD	.	.	.	.	.
=12	=12	=12	=12	=12	=12
2GG;	2d;	2g;	2b-;	2GG;	vi;
4A	4c	4f	4ff	4FF	Vb
=13	=13	=13	=13	=13	=13
8B-	2d	2f	2dd	2BB-	I
8c	.	.	.	.	.
8B-	.	.	.	.	.
8A	.	.	.	.	.
8G	4d	4g	4b-	4GG	vi
8F	.	.	.	.	.
=14	=14	=14	=14	=14	=14
8E-	2A	2f	2cc	2FF	V7d
8G	.	.	.	.	.
8F	.	.	.	.	.
8E-	.	.	.	.	.
8D	4A	4f	4ee-	4DD	iii7
8C	.	.	.	.	.
=15	=15	=15	=15	=15	=15
8BB-	2B-	4f	4dd	4BB-	I
8D	.	.	.	.	.
8E-	.	4g	2cc	4CC	ii7b
8C	.	.	.	.	.
8F	4A	8f	.	4FF	V7
8FF	.	8e-	.	.	.
=16	=16	=16	=16	=16	=16
2BB-;	2F;	2d;	2b-;	2BB-;	I;
==	==	==	==	==	==
*-	*-	*-	*-	*-	*-
!!chor2scor: -l 2 -s 0.6 -o %b.pmx
